img/payment_2_selected.svg

<svg width="103" height="36" viewBox="0 0 103 36" fill="none" xmlns="http://www.w3.org/2000/svg">
<path d="M0 6C0 2.68629 2.68629 0 6 0H97C100.314 0 103 2.68629 103 6V30C103 33.3137 100.314 36 97 36H6C2.68629 36 0 33.3137 0 30V6Z" fill="white"/>
<path d="M21.8752 12.906V14.264H32.0952V12.906H27.8672V11.604H26.1452V12.906H21.8752ZM21.3432 21.054H24.0032V24.218H25.7532V21.054H28.3152V24.218H30.0652V21.054H32.7112V19.654H21.3432V21.054ZM22.7292 16.882C22.7292 18.268 24.3252 19.038 27.0132 19.038C29.7012 19.038 31.2972 18.268 31.2972 16.882C31.2972 15.524 29.7012 14.782 27.0132 14.782C24.3252 14.782 22.7292 15.524 22.7292 16.882ZM24.5352 16.882C24.5352 16.322 25.3612 16.056 27.0132 16.056C28.6792 16.056 29.4912 16.322 29.4912 16.882C29.4912 17.484 28.6792 17.75 27.0132 17.75C25.3612 17.75 24.5352 17.484 24.5352 16.882ZM42.6935 11.618V16.476H41.4895V11.856H39.8935V23.574H41.4895V17.876H42.6935V24.176H44.3455V11.618H42.6935ZM33.9435 21.334H34.8255C36.4495 21.334 37.7795 21.278 39.2915 20.984L39.1655 19.57C37.9615 19.794 36.8695 19.864 35.6655 19.892V14.488H38.5775V13.088H33.9435V21.334ZM46.7958 12.108V13.48H48.4478V15.664H46.9078V17.036H50.6038V18.198H45.8018V19.584H57.1698V18.198H52.3258V17.036H56.0498V15.664H54.5098V13.48H56.1478V12.108H46.7958ZM47.2018 23.952H55.8818V22.552H48.9238V20.424H47.2018V23.952ZM50.1698 15.664V13.48H52.7878V15.664H50.1698ZM66.8022 11.618V13.214H64.4502C64.5062 12.864 64.5342 12.5 64.5342 12.122H58.9342V13.508H62.6162C62.4062 15.02 61.0902 16.238 58.2202 16.826L58.7942 18.226C61.5382 17.624 63.3302 16.434 64.1002 14.544H66.8022V15.65H63.9602V16.966H66.8022V17.932H68.5522V11.618H66.8022ZM60.2782 19.78H66.8022V20.536H60.3062V24.064H68.8042V22.692H62.0282V21.824H68.5522V18.408H60.2782V19.78ZM79.4025 11.618V24.176H81.0685V11.618H79.4025ZM70.0505 20.536L71.0865 21.81C72.2485 21.096 72.9905 19.85 73.4105 18.38C73.8445 19.724 74.5725 20.844 75.6925 21.502L76.7145 20.256C74.8945 19.192 74.2505 17.078 74.2505 14.992V14.306H76.1265V12.906H70.5125V14.306H72.5565V14.992C72.5565 17.134 71.8845 19.388 70.0505 20.536ZM75.2165 17.344H76.8685V23.588H78.4925V11.842H76.8685V15.93H75.2165V17.344Z" fill="#E7342C"/>
<path d="M6 1H97V-1H6V1ZM102 6V30H104V6H102ZM97 35H6V37H97V35ZM1 30V6H-1V30H1ZM6 35C3.23858 35 1 32.7614 1 30H-1C-1 33.866 2.13401 37 6 37V35ZM102 30C102 32.7614 99.7614 35 97 35V37C100.866 37 104 33.866 104 30H102ZM97 1C99.7614 1 102 3.23858 102 6H104C104 2.13401 100.866 -1 97 -1V1ZM6 -1C2.13401 -1 -1 2.13401 -1 6H1C1 3.23858 3.23858 1 6 1V-1Z" fill="#E7342C"/>
</svg>

<?xml version="1.0" encoding="utf-8"?>
<!-- Generator: Adobe Illustrator 26.3.1, SVG Export Plug-In . SVG Version: 6.00 Build 0)  -->
<svg version="1.1" id="레이어_1" xmlns="http://www.w3.org/2000/svg" xmlns:xlink="http://www.w3.org/1999/xlink" x="0px"
	 y="0px" viewBox="0 0 103 36" style="enable-background:new 0 0 103 36;" xml:space="preserve">
<style type="text/css">
	.st0{fill:#E7342C;}
</style>
<path class="st0" d="M21.88,12.91v1.36H32.1v-1.36h-4.23v-1.3h-1.72v1.3H21.88z M21.34,21.05H24v3.16h1.75v-3.16h2.56v3.16h1.75
	v-3.16h2.65v-1.4H21.34V21.05z M22.73,16.88c0,1.39,1.6,2.16,4.28,2.16s4.28-0.77,4.28-2.16c0-1.36-1.6-2.1-4.28-2.1
	S22.73,15.52,22.73,16.88z M24.54,16.88c0-0.56,0.83-0.83,2.48-0.83c1.67,0,2.48,0.27,2.48,0.83c0,0.6-0.81,0.87-2.48,0.87
	C25.36,17.75,24.54,17.48,24.54,16.88z M42.69,11.62v4.86h-1.2v-4.62h-1.6v11.72h1.6v-5.7h1.2v6.3h1.65V11.62H42.69z M33.94,21.33
	h0.88c1.62,0,2.95-0.06,4.47-0.35l-0.13-1.41c-1.2,0.22-2.3,0.29-3.5,0.32v-5.4h2.91v-1.4h-4.63V21.33z M46.8,12.11v1.37h1.65v2.18
	h-1.54v1.37h3.7v1.16h-4.8v1.39h11.37V18.2h-4.84v-1.16h3.72v-1.37h-1.54v-2.18h1.64v-1.37H46.8z M47.2,23.95h8.68v-1.4h-6.96v-2.13
	H47.2V23.95z M50.17,15.66v-2.18h2.62v2.18H50.17z M66.8,11.62v1.6h-2.35c0.06-0.35,0.08-0.71,0.08-1.09h-5.6v1.39h3.68
	c-0.21,1.51-1.53,2.73-4.4,3.32l0.57,1.4c2.74-0.6,4.54-1.79,5.31-3.68h2.7v1.11h-2.84v1.32h2.84v0.97h1.75v-6.31H66.8z
	 M60.28,19.78h6.52v0.76h-6.5v3.53h8.5v-1.37h-6.78v-0.87h6.52v-3.42h-8.27V19.78z M79.4,11.62v12.56h1.67V11.62H79.4z M70.05,20.54
	l1.04,1.27c1.16-0.71,1.9-1.96,2.32-3.43c0.43,1.34,1.16,2.46,2.28,3.12l1.02-1.25c-1.82-1.06-2.46-3.18-2.46-5.26v-0.69h1.88v-1.4
	h-5.61v1.4h2.04v0.69C72.56,17.13,71.88,19.39,70.05,20.54z M75.22,17.34h1.65v6.24h1.62V11.84h-1.62v4.09h-1.65V17.34z"/>
</svg>
